tools/download-figma-icons/icons/outlined-large/moon.svg

<svg width="64" height="64" viewBox="0 0 64 64" fill="none" xmlns="http://www.w3.org/2000/svg">
<path fill-rule="evenodd" clip-rule="evenodd" d="M40.5607 6.51312C40.9836 6.03212 41.6691 5.87312 42.2637 6.10512V6.10612C53.0383 10.3661 60 20.5511 60 32.0521C60 47.4621 47.3396 59.9991 31.7768 59.9991C21.6119 59.9991 12.1931 54.5551 7.19599 45.7921C6.879 45.2361 6.95168 44.5431 7.37669 44.0641C7.79968 43.5851 8.48716 43.4241 9.08177 43.6631C12.0376 44.8461 15.1853 45.4471 18.44 45.4471C32.3321 45.4471 43.6336 34.2571 43.6336 20.5011C43.6336 16.1791 42.51 11.9381 40.386 8.24112C40.068 7.68612 40.1377 6.99312 40.5607 6.51312ZM12.2052 47.7651C16.9439 53.5421 24.1236 56.9991 31.7768 56.9991C45.6698 56.9991 56.9714 45.8091 56.9714 32.0531C56.9714 23.1931 52.3438 15.2091 44.8955 10.7441C46.0575 13.8401 46.6622 17.1491 46.6622 20.5021C46.6622 35.9111 34.0018 48.4481 18.44 48.4481C16.316 48.4481 14.2323 48.2191 12.2052 47.7651ZM25.7115 19.7895L23.3088 18.9315C22.4265 18.6165 22.4265 17.3805 23.3088 17.0655L25.7115 16.2075C26.2637 16.0105 26.6988 15.5805 26.8977 15.0335L27.7638 12.6535C28.0818 11.7795 29.3286 11.7795 29.6466 12.6535L30.5128 15.0335C30.7127 15.5795 31.1467 16.0105 31.699 16.2075L34.1016 17.0655C34.9839 17.3805 34.9839 18.6165 34.1016 18.9315L31.699 19.7895C31.1467 19.9865 30.7116 20.4165 30.5128 20.9635L29.6466 23.3435C29.3286 24.2175 28.0818 24.2175 27.7638 23.3435L26.8977 20.9635C26.6978 20.4175 26.2637 19.9865 25.7115 19.7895ZM18.0411 34.6213L19.6422 35.1933C20.0107 35.3243 20.3004 35.6113 20.4327 35.9763L21.0101 37.5623C21.2221 38.1453 22.054 38.1453 22.266 37.5623L22.8434 35.9763C22.9757 35.6113 23.2654 35.3243 23.6339 35.1933L25.235 34.6213C25.8225 34.4113 25.8225 33.5873 25.235 33.3773L23.6339 32.8053C23.2654 32.6743 22.9757 32.3873 22.8434 32.0223L22.266 30.4363C22.054 29.8533 21.2221 29.8533 21.0101 30.4363L20.4327 32.0223C20.3004 32.3873 20.0107 32.6743 19.6422 32.8053L18.0411 33.3773C17.4536 33.5873 17.4536 34.4113 18.0411 34.6213ZM11.0563 23.8938L9.85492 23.4648C9.41376 23.3068 9.41376 22.6888 9.85492 22.5318L11.0563 22.1028C11.3318 22.0048 11.5489 21.7888 11.6488 21.5158L12.0819 20.3258C12.2414 19.8888 12.8653 19.8888 13.0238 20.3258L13.4569 21.5158C13.5558 21.7888 13.7739 22.0038 14.0495 22.1028L15.2508 22.5318C15.692 22.6898 15.692 23.3078 15.2508 23.4648L14.0495 23.8938C13.7739 23.9918 13.5568 24.2078 13.4569 24.4808L13.0238 25.6708C12.8643 26.1078 12.2404 26.1078 12.0819 25.6708L11.6488 24.4808C11.5499 24.2078 11.3318 23.9928 11.0563 23.8938Z" fill="black"/>
</svg>

<svg xmlns="http://www.w3.org/2000/svg" width="64" height="64" fill="none" viewBox="0 0 64 64"><path fill="currentColor" fill-rule="evenodd" d="M40.56 6.513a1.53 1.53 0 0 1 1.704-.408v.001C53.038 10.366 60 20.551 60 32.052 60 47.462 47.34 60 31.777 60c-10.165 0-19.584-5.444-24.581-14.207a1.49 1.49 0 0 1 .18-1.728 1.52 1.52 0 0 1 1.706-.4 25.1 25.1 0 0 0 9.358 1.783c13.892 0 25.194-11.19 25.194-24.946a24.64 24.64 0 0 0-3.248-12.26 1.49 1.49 0 0 1 .175-1.728M12.206 47.765C16.944 53.542 24.124 57 31.777 57 45.67 57 56.97 45.81 56.97 32.053c0-8.86-4.627-16.844-12.075-21.309a27.8 27.8 0 0 1 1.766 9.758c0 15.41-12.66 27.946-28.222 27.946a28.5 28.5 0 0 1-6.235-.683M25.712 19.79l-2.403-.858c-.883-.316-.883-1.551 0-1.866l2.403-.858a1.96 1.96 0 0 0 1.186-1.174l.866-2.38c.318-.874 1.565-.874 1.883 0l.866 2.38c.2.545.634.976 1.186 1.173l2.403.858c.882.316.882 1.551 0 1.866l-2.403.858a1.96 1.96 0 0 0-1.186 1.174l-.866 2.38c-.318.875-1.565.875-1.883 0l-.866-2.38a1.97 1.97 0 0 0-1.186-1.174m-7.67 14.831 1.6.572a1.3 1.3 0 0 1 .79.783l.578 1.586c.212.583 1.044.583 1.256 0l.577-1.586c.133-.365.422-.652.79-.783l1.602-.572a.66.66 0 0 0 0-1.244l-1.601-.572a1.3 1.3 0 0 1-.79-.783l-.578-1.586c-.212-.583-1.044-.583-1.256 0l-.577 1.586a1.3 1.3 0 0 1-.79.783l-1.602.572a.66.66 0 0 0 0 1.244m-6.986-10.727-1.201-.43a.494.494 0 0 1 0-.932l1.201-.43a.98.98 0 0 0 .593-.586l.433-1.19a.502.502 0 0 1 .942 0l.433 1.19a.98.98 0 0 0 .592.587l1.202.429a.494.494 0 0 1 0 .933l-1.201.429a.98.98 0 0 0-.593.587l-.433 1.19a.502.502 0 0 1-.942 0l-.433-1.19a.98.98 0 0 0-.593-.587" clip-rule="evenodd"/></svg>
